X: 43303
T: Woodpecker, The
R: hornpipe
M: 4/4
K: Dmajor
|:FG|ABAF GECE|DEFA d2af|gfge cdec|AGEF G2FG|
ABAF GECE|DEFA d2af|gfge cAGE|DFEC D2:|
|:fg|a_a =ab afdB|ADFA d2af|gfge cdec|AGEF G2FG|
ABAF GECE|DEFA d2af|gfge cAGE|DFEC D2:|

